actions/24/lensautofix.svg

<?xml version="1.0" encoding="UTF-8" standalone="no"?>
<svg
   width="24"
   height="24"
   viewBox="0 0 24 24"
   version="1.1"
   id="svg7"
   sodipodi:docname="lensautofix.svg"
   inkscape:version="1.1.2 (0a00cf5339, 2022-02-04)"
   xmlns:inkscape="http://www.inkscape.org/namespaces/inkscape"
   xmlns:sodipodi="http://sodipodi.sourceforge.net/DTD/sodipodi-0.dtd"
   xmlns="http://www.w3.org/2000/svg"
   xmlns:svg="http://www.w3.org/2000/svg">
  <sodipodi:namedview
     id="namedview9"
     pagecolor="#000000"
     bordercolor="#666666"
     borderopacity="1.0"
     inkscape:pageshadow="2"
     inkscape:pageopacity="0"
     inkscape:pagecheckerboard="0"
     showgrid="false"
     inkscape:zoom="113.66667"
     inkscape:cx="11.995601"
     inkscape:cy="11.982405"
     inkscape:window-width="1482"
     inkscape:window-height="967"
     inkscape:window-x="0"
     inkscape:window-y="29"
     inkscape:window-maximized="1"
     inkscape:current-layer="svg7" />
  <defs
     id="defs3">
    <style
       id="current-color-scheme"
       type="text/css">
   .ColorScheme-Text { color:#eeeeec; } .ColorScheme-Highlight { color:#367bf0; } .ColorScheme-NeutralText { color:#ffcc44; } .ColorScheme-PositiveText { color:#3db47e; } .ColorScheme-NegativeText { color:#dd4747; }
  </style>
  </defs>
  <path
     style="fill:currentColor"
     class="ColorScheme-Text"
     d="M 8,1 C 4.1340068,1 1,4.1340068 1,8 c 0,3.865993 3.1340068,7 7,7 3.865993,0 7,-3.134007 7,-7 C 15,4.1340068 11.865993,1 8,1 Z m 0,2 c 2.761424,0 5,2.2385763 5,5 0,2.761424 -2.238576,5 -5,5 C 5.2385763,13 3,10.761424 3,8 3,5.2385763 5.2385763,3 8,3 Z m 0.095703,1 c -2.2091,0 -4,1.7909 -4,4 0,2.2091 1.7909,4 4,4 2.2091,0 4,-1.7909 4,-4 C 12.094703,5.9252 10.506553,4.1958781 8.4394531,4.0175781 8.0000031,3.9999781 8.0957031,4 8.095703,4 Z m 0,1 c 1.6569,0 3,1.3432 3,3 0,1.6568 -1.3431,3 -3,3 -1.6568,0 -3,-1.3432 -3,-3 0,-1.6568 1.3432,-3 3,-3 z m 0,1 c -1.108,0 -2,0.892 -2,2 0,1.108 0.892,2 2,2 1.108,0 2,-0.892 2,-2 0,-0.1077103 -0.01079,-0.2122633 -0.02926,-0.314212 -0.01666,-0.091906 -0.1909414,-0.065896 -0.1909414,-0.065896 -0.033565,0.073072 0.049045,-0.062407 0,0 C 9.6938494,7.8510294 9.4140655,8 9.0957031,8 c -0.554,0 -1,-0.446 -1,-1 0,-0.2966703 0.1293562,-0.5598348 0.3340228,-0.7413125 0.074265,-0.065851 -0.091515,0.042038 0,0 0,0 0.048907,-0.2186107 -0.055475,-0.2355521 C 8.2836128,6.0084248 8.1908909,6 8.095703,6 Z"
     transform="translate(4,4)"
     id="path5"
     sodipodi:nodetypes="sssssssssscsscccsssssssssscsssscss" />
</svg>

<svg xmlns="http://www.w3.org/2000/svg" width="24" height="24" viewBox="0 0 24 24">
 <defs>
  <style id="current-color-scheme" type="text/css">
   .ColorScheme-Text { color:#eeeeec; } .ColorScheme-Highlight { color:#367bf0; } .ColorScheme-NeutralText { color:#ffcc44; } .ColorScheme-PositiveText { color:#3db47e; } .ColorScheme-NegativeText { color:#dd4747; }
  </style>
 </defs>
 <path style="fill:currentColor" class="ColorScheme-Text" d="M 8 1 A 7 7 0 0 0 1 8 A 7 7 0 0 0 8 15 A 7 7 0 0 0 15 8 A 7 7 0 0 0 8 1 z M 8 3 A 5 5 0 0 1 13 8 A 5 5 0 0 1 8 13 A 5 5 0 0 1 3 8 A 5 5 0 0 1 8 3 z M 8.0957031 4 C 5.8866031 4 4.0957031 5.7909 4.0957031 8 C 4.0957031 10.2091 5.8866031 12 8.0957031 12 C 10.304803 12 12.095703 10.2091 12.095703 8 C 12.094703 5.9252 10.506553 4.1958781 8.4394531 4.0175781 C 8.0000031 3.9999781 8.0957031 4 8.0957031 4 z M 8.0957031 5 C 9.7526031 5 11.095703 6.3432 11.095703 8 C 11.095703 9.6568 9.7526031 11 8.0957031 11 C 6.4389031 11 5.0957031 9.6568 5.0957031 8 C 5.0957031 6.3432 6.4389031 5 8.0957031 5 z M 8.0957031 6 C 6.9877031 6 6.0957031 6.892 6.0957031 8 C 6.0957031 9.108 6.9877031 10 8.0957031 10 C 9.2037031 10 10.095703 9.108 10.095703 8 C 10.095703 7.79519 10.0567 7.6017956 10 7.4160156 C 9.84212 7.7597256 9.5000231 8 9.0957031 8 C 8.5417031 8 8.0957031 7.554 8.0957031 7 C 8.0957031 6.59568 8.3359675 6.2535931 8.6796875 6.0957031 C 8.4939075 6.0390031 8.3005131 6 8.0957031 6 z" transform="translate(4 4)"/>
</svg>
